source/assets/images/icons/link-external.svg

<svg xmlns="http://www.w3.org/2000/svg" width="32" height="32" viewBox="0 0 32 32"><path fill="#444" d="M16 0C7.163 0 0 7.163 0 16s7.163 16 16 16 16-7.163 16-16S24.837 0 16 0zm10.486 8.703h-3.32c-.55-1.63-1.3-3.157-2.25-4.497 2.258.942 4.187 2.515 5.57 4.497zm-2.183 6.07c-.063-1.217-.22-2.432-.468-3.617h3.99c.464 1.134.77 2.348.892 3.618h-4.413zm4.413 2.453c-.12 1.273-.43 2.49-.896 3.627h-3.975c.247-1.188.4-2.406.46-3.627h4.41zm-11.49-8.523V3.72c1.47 1.293 2.575 3.032 3.34 4.983h-3.34zm4.1 2.453c.278 1.183.45 2.403.52 3.618h-4.62v-3.618h4.1zM14.773 3.65v5.053h-3.417c.777-1.986 1.908-3.752 3.417-5.052zm0 7.506v3.618h-4.7c.07-1.215.244-2.435.523-3.618h4.177zm0 6.07v3.627h-4.19c-.276-1.186-.446-2.41-.512-3.627h4.703zm0 6.08v5.102c-1.522-1.31-2.66-3.096-3.436-5.102h3.436zm2.452 5.033v-5.035h3.358c-.764 1.97-1.875 3.73-3.358 5.033zm0-7.488v-3.627h4.624c-.068 1.217-.238 2.44-.514 3.627h-4.11zm-6.253-16.6C10.04 5.582 9.3 7.09 8.755 8.702h-3.24c1.36-1.95 3.247-3.502 5.458-4.45zM7.62 14.772H3.283c.12-1.267.428-2.482.893-3.616h3.91c-.248 1.185-.404 2.4-.467 3.618zm.457 6.08H4.18c-.467-1.135-.775-2.353-.896-3.626h4.332c.06 1.22.214 2.438.46 3.627zM5.52 23.307h3.218c.535 1.596 1.26 3.093 2.174 4.415-2.18-.946-4.046-2.485-5.393-4.413zm15.453 4.464c.93-1.334 1.668-2.85 2.21-4.465h3.297c-1.37 1.962-3.276 3.52-5.506 4.465z"/></svg>

<?xml version="1.0" encoding="utf-8"?>
<!-- Generated by IcoMoon.io -->
<!DOCTYPE svg PUBLIC "-//W3C//DTD SVG 1.1//EN" "http://www.w3.org/Graphics/SVG/1.1/DTD/svg11.dtd">
<svg version="1.1" xmlns="http://www.w3.org/2000/svg" xmlns:xlink="http://www.w3.org/1999/xlink" width="32" height="32" viewBox="0 0 32 32">
<path fill="#444444" d="M16 0c-8.837 0-16 7.163-16 16s7.163 16 16 16c8.837 0 16-7.163 16-16s-7.163-16-16-16v0zM26.486 8.703h-3.319c-0.552-1.631-1.302-3.157-2.252-4.497 2.259 0.942 4.188 2.515 5.571 4.497v0zM24.303 14.774c-0.063-1.218-0.219-2.433-0.468-3.618h3.989c0.465 1.134 0.772 2.348 0.893 3.618h-4.413zM28.716 17.226c-0.121 1.273-0.429 2.491-0.896 3.627h-3.975c0.247-1.188 0.401-2.406 0.461-3.627h4.41zM17.226 8.703v-4.984c1.47 1.294 2.575 3.033 3.339 4.984h-3.339zM21.325 11.156c0.279 1.183 0.452 2.403 0.522 3.618h-4.62v-3.618h4.098zM14.774 3.651v5.052h-3.417c0.777-1.986 1.908-3.752 3.417-5.052v0zM14.774 11.156v3.618h-4.699c0.070-1.215 0.243-2.435 0.522-3.618h4.177zM14.774 17.226v3.627h-4.189c-0.277-1.186-0.447-2.409-0.513-3.627h4.702zM14.774 23.306v5.102c-1.522-1.311-2.659-3.096-3.436-5.102h3.436zM17.226 28.339v-5.033h3.358c-0.764 1.971-1.875 3.729-3.358 5.033v0zM17.226 20.853v-3.627h4.624c-0.067 1.217-0.237 2.44-0.513 3.627h-4.11zM10.973 4.253c-0.934 1.329-1.672 2.838-2.218 4.45h-3.241c1.36-1.95 3.248-3.503 5.459-4.45v0zM7.619 14.774h-4.335c0.121-1.269 0.428-2.484 0.893-3.618h3.911c-0.249 1.185-0.405 2.4-0.468 3.618v0zM8.077 20.853h-3.897c-0.467-1.136-0.775-2.354-0.896-3.627h4.332c0.061 1.22 0.214 2.438 0.461 3.627v0zM5.52 23.306h3.218c0.535 1.596 1.259 3.093 2.174 4.415-2.181-0.948-4.046-2.487-5.393-4.415v0zM20.973 27.77c0.931-1.334 1.668-2.849 2.21-4.465h3.297c-1.37 1.962-3.276 3.521-5.506 4.465v0z"></path>
</svg>
